app/images/src/icons/holiday.svg

<svg width="16" height="16" viewBox="0 0 16 16" fill="none" xmlns="http://www.w3.org/2000/svg">
<path d="M6.79057 1.06553C6.3312 1.24053 6.04057 1.83741 6.1687 2.33741C6.25932 2.69678 6.45307 2.92179 6.81245 3.08741C7.2187 3.27491 7.41557 3.24679 7.4562 2.99991C7.4812 2.84366 7.39057 2.74053 7.1312 2.64366C6.7687 2.50303 6.6062 2.24366 6.68745 1.93428C6.81245 1.46866 7.4062 1.38741 7.76557 1.78741C7.91557 1.95303 7.99995 2.13741 7.99995 2.31241C7.99995 2.38741 7.92807 2.82178 7.84057 3.27178L7.6812 4.09678L7.56557 4.02804C6.44682 3.36553 5.5437 3.19678 5.1312 3.57491C5.0312 3.66553 4.9687 3.79053 4.9062 4.03116C4.87807 4.14366 4.0187 6.40616 3.00307 9.06241C1.7812 12.2468 1.14682 13.9437 1.13432 14.0499C1.09682 14.4093 1.32182 14.7905 1.65932 14.9374C1.7937 14.9937 1.86557 15.003 2.05932 14.9937C2.28432 14.9812 2.54995 14.8812 7.1562 13.1187C9.82807 12.0937 12.0906 11.2405 12.1781 11.2187C12.8937 11.053 12.9624 10.2968 12.3749 9.06866C12.2718 8.85928 12.1124 8.56553 12.0187 8.42178L11.8468 8.15928L11.9937 8.13116C12.0749 8.11241 12.4562 8.04053 12.8374 7.96553C13.6187 7.81553 13.6999 7.81866 13.9531 7.99366C14.4218 8.31866 14.4624 8.89991 14.0312 9.11553C13.8687 9.19991 13.7312 9.20616 13.5687 9.14053C13.3999 9.06866 13.3249 8.98428 13.2312 8.75303C13.1156 8.47803 13.0499 8.40616 12.9062 8.40616C12.7656 8.40616 12.6656 8.47491 12.6406 8.59053C12.5999 8.77491 12.8781 9.33741 13.0874 9.49053C13.3249 9.66553 13.4406 9.70303 13.7499 9.70303C14.0062 9.70303 14.0718 9.69053 14.2249 9.61866C14.8374 9.33428 15.0374 8.69991 14.7187 8.06241C14.4937 7.61553 14.0187 7.31241 13.5406 7.31241C13.4343 7.31241 11.7343 7.62178 11.5593 7.67491C11.5281 7.68428 11.4406 7.59991 11.2937 7.41553C10.5312 6.44678 9.3312 5.27804 8.41557 4.60928C8.24995 4.48741 8.16245 4.40616 8.17182 4.37491C8.17807 4.34991 8.26245 3.91241 8.35932 3.40616C8.5062 2.64991 8.53432 2.44053 8.52495 2.23429C8.49995 1.69366 8.14995 1.24991 7.59995 1.06553C7.34682 0.981159 7.01245 0.981159 6.79057 1.06553ZM6.25307 3.99991C6.6687 4.13741 7.56245 4.60928 7.56245 4.69053C7.56245 4.70616 7.51245 4.98116 7.44995 5.29678C7.35307 5.78428 7.34057 5.88741 7.37182 5.96554C7.44057 6.12803 7.6687 6.17803 7.7937 6.05303C7.84995 5.99679 7.8812 5.88428 7.95307 5.50616C8.00307 5.24679 8.05307 5.03116 8.06557 5.03116C8.11245 5.03116 8.78745 5.58741 9.22807 5.99053C9.68432 6.40928 10.2499 6.99991 10.6687 7.49991L10.9156 7.79678L10.3937 7.89678C10.0593 7.95928 9.84682 8.01553 9.80932 8.04991C9.72495 8.12491 9.72807 8.35303 9.81245 8.43741C9.89682 8.52178 9.98745 8.51866 10.6406 8.39053C10.9499 8.33116 11.2187 8.28116 11.2374 8.28116C11.2937 8.28116 11.7093 8.93741 11.8968 9.31553C12.1749 9.88116 12.2999 10.3405 12.2218 10.5374C12.1062 10.8374 11.6374 10.7812 10.7968 10.3624C9.03432 9.48741 6.61245 7.05616 5.74995 5.29678C5.50932 4.80303 5.42807 4.56553 5.42495 4.30929C5.42182 4.14053 5.43432 4.08741 5.48432 4.03116C5.62182 3.87803 5.85932 3.86553 6.25307 3.99991ZM5.69682 6.28741C5.84057 6.51553 6.09057 6.92178 6.24995 7.18741C7.26245 8.86553 8.26557 10.2687 9.34057 11.5062L9.4687 11.6499L9.10307 11.7937L8.73432 11.9405L8.55307 11.7437C7.47495 10.5843 6.1312 8.67491 4.90932 6.56553L4.68432 6.17803L4.87807 5.65616L5.07495 5.13428L5.2562 5.50616C5.35307 5.70928 5.55307 6.05929 5.69682 6.28741ZM4.7187 7.31241C5.67807 8.95303 6.89057 10.6749 7.87807 11.7999L8.18432 12.1468L7.82495 12.2812C7.51557 12.3968 7.45932 12.4093 7.42495 12.3718C7.26557 12.203 6.67182 11.4655 6.36245 11.053C5.75307 10.2374 4.66557 8.58741 4.22495 7.80928L4.12495 7.63116L4.27182 7.24053C4.38432 6.94678 4.4312 6.85616 4.4562 6.88428C4.47495 6.90616 4.5937 7.09678 4.7187 7.31241ZM4.14682 8.72491C4.94057 10.028 6.04682 11.5999 6.72495 12.3874C6.82807 12.5062 6.89995 12.6124 6.88432 12.628C6.87182 12.6405 6.71557 12.7062 6.53745 12.7749L6.2187 12.8999L5.8937 12.4874C5.16245 11.5624 4.09995 10.0124 3.64995 9.21866L3.5687 9.07803L3.71557 8.69678C3.7937 8.48428 3.8687 8.31241 3.87807 8.31241C3.88745 8.31241 4.00932 8.49991 4.14682 8.72491ZM8.95307 9.79991C9.4312 10.178 10.1687 10.6593 10.5874 10.8624C10.7968 10.9624 10.9656 11.053 10.9656 11.0624C10.9687 11.0718 10.7531 11.1624 10.4937 11.2624L10.0156 11.4437L9.8812 11.2905C9.30307 10.6437 8.84057 10.0687 8.4062 9.46866L8.1437 9.10928L8.3937 9.33116C8.52807 9.45303 8.7812 9.66241 8.95307 9.79991ZM3.5187 10.0374C4.0812 10.9312 4.83432 12.0124 5.3812 12.7124C5.5312 12.9062 5.6562 13.0749 5.6562 13.0905C5.6562 13.103 5.5062 13.1718 5.32182 13.2405L4.98745 13.3655L4.87495 13.2218C4.32495 12.5249 3.0312 10.6312 3.0312 10.5218C3.0312 10.4999 3.08432 10.3405 3.14995 10.1687C3.21557 9.99991 3.2812 9.83428 3.29057 9.80303C3.30307 9.77491 3.31557 9.74991 3.32182 9.74991C3.3312 9.74991 3.4187 9.88116 3.5187 10.0374ZM2.9062 11.3655C3.07495 11.6437 3.75307 12.6249 4.09995 13.0905C4.27182 13.3187 4.41557 13.5218 4.42495 13.5437C4.43745 13.5749 3.8812 13.8124 3.79057 13.8124C3.74682 13.8124 3.36245 13.2874 2.8312 12.5062L2.46557 11.9687L2.61245 11.578C2.6937 11.3624 2.7687 11.1874 2.7812 11.1874C2.79057 11.1874 2.84682 11.2687 2.9062 11.3655ZM2.43745 12.8905C2.5312 13.028 2.7437 13.3343 2.91245 13.5687C3.0812 13.8062 3.2187 14.0093 3.2187 14.0218C3.2187 14.0624 2.0937 14.478 1.99682 14.4749C1.83432 14.4718 1.6562 14.2905 1.6562 14.1343C1.6562 14.0843 1.7312 13.8749 2.11557 12.8812C2.17495 12.7218 2.23745 12.5999 2.24995 12.6155C2.26245 12.628 2.34682 12.753 2.43745 12.8905Z" fill="white"/>
<path d="M8.85625 6.18437C8.75 6.23125 8.65625 6.375 8.65625 6.4875C8.65625 6.55937 8.6875 6.625 8.75313 6.70312C8.8375 6.79688 8.86875 6.8125 8.99062 6.8125C9.28125 6.8125 9.42188 6.49687 9.22813 6.28125C9.13438 6.17812 8.97188 6.1375 8.85625 6.18437Z" fill="white"/>
<path d="M9.4656 1.65315C9.34997 1.7719 9.34997 1.83127 9.48122 2.08752C9.63435 2.39377 9.68747 2.61877 9.70935 3.06252C9.7281 3.46565 9.6906 3.91877 9.60622 4.3344C9.55622 4.5719 9.57185 4.65627 9.68435 4.74065C9.76872 4.80627 9.94997 4.79065 10.0218 4.7094C10.1375 4.58752 10.25 3.85627 10.25 3.25002C10.25 2.1344 9.83435 1.28752 9.4656 1.65315Z" fill="white"/>
<path d="M11.1219 2.0592C11.05 2.13107 11.0312 2.17795 11.0312 2.28107C11.0312 2.44357 11.0719 2.51857 11.1875 2.57795C11.4781 2.72795 11.7875 2.44357 11.6438 2.1592C11.5375 1.9592 11.275 1.90607 11.1219 2.0592Z" fill="white"/>
<path d="M11.75 3.71562C11.4468 3.81562 11.2031 4.04687 11.0906 4.34062C10.9281 4.775 11.1468 5.2875 11.5875 5.50625C11.7031 5.5625 11.7843 5.57812 11.9843 5.57812C12.2937 5.57812 12.4812 5.49062 12.6968 5.25C12.8812 5.04687 12.95 4.84375 12.9312 4.56562C12.8968 4.07812 12.5312 3.71875 12.05 3.7C11.9281 3.69375 11.7937 3.7 11.75 3.71562ZM12.1812 4.28125C12.4187 4.425 12.4718 4.72187 12.2968 4.90625C12.1125 5.1 11.8875 5.10625 11.7031 4.92187C11.5031 4.71875 11.5343 4.45312 11.7781 4.29062C11.9093 4.20312 12.0468 4.2 12.1812 4.28125Z" fill="white"/>
<path d="M13.8563 6.1875C13.7563 6.22812 13.6562 6.37187 13.6562 6.475C13.6562 6.675 13.7938 6.80937 13.9938 6.8125C14.3438 6.8125 14.4375 6.36562 14.125 6.20312C14.025 6.15 13.9531 6.14687 13.8563 6.1875Z" fill="white"/>
</svg>

<svg width="16" height="16" fill="none" xmlns="http://www.w3.org/2000/svg"><path d="M6.79 1.066c-.459.175-.75.771-.621 1.271.09.36.284.585.643.75.407.188.604.16.644-.087.025-.156-.065-.26-.325-.356-.362-.141-.525-.4-.444-.71.125-.465.72-.547 1.079-.147.15.166.234.35.234.525 0 .075-.072.51-.16.96l-.159.825-.115-.069c-1.12-.662-2.022-.831-2.435-.453-.1.09-.162.216-.225.456-.028.113-.887 2.375-1.903 5.031-1.222 3.185-1.856 4.882-1.869 4.988-.037.36.188.74.525.887.135.057.207.066.4.057.225-.013.49-.113 5.097-1.875 2.672-1.025 4.935-1.878 5.022-1.9.716-.166.784-.922.197-2.15a7.734 7.734 0 0 0-.356-.647l-.172-.263.147-.028c.08-.019.462-.09.843-.165.782-.15.863-.147 1.116.028.469.325.51.906.078 1.122a.505.505 0 0 1-.462.025c-.17-.072-.244-.157-.338-.388-.115-.275-.181-.347-.325-.347-.14 0-.24.069-.265.185-.041.184.237.746.446.9.238.175.354.212.663.212.256 0 .322-.012.475-.084.612-.285.812-.92.494-1.557-.225-.446-.7-.75-1.178-.75-.107 0-1.807.31-1.982.363-.03.01-.118-.075-.265-.26-.763-.968-1.963-2.137-2.878-2.806-.166-.122-.254-.203-.244-.234.006-.025.09-.463.187-.969.147-.756.175-.965.166-1.172-.025-.54-.375-.984-.925-1.168-.253-.085-.588-.085-.81 0ZM6.254 4c.416.137 1.31.61 1.31.69 0 .016-.05.291-.113.607-.097.487-.11.59-.078.669.069.162.297.212.422.087.056-.056.087-.169.16-.547.05-.26.1-.475.112-.475.046 0 .721.556 1.162.96a17.257 17.257 0 0 1 1.44 1.509l.248.297-.522.1c-.335.062-.547.119-.585.153-.084.075-.08.303.003.387.085.085.175.082.829-.046.309-.06.578-.11.596-.11.057 0 .472.656.66 1.035.278.565.403 1.024.325 1.221-.116.3-.585.244-1.425-.175-1.763-.875-4.185-3.306-5.047-5.065-.24-.494-.322-.731-.325-.988-.003-.168.01-.222.06-.278.137-.153.374-.165.768-.031Zm-.556 2.287c.144.229.394.635.553.9 1.012 1.679 2.016 3.082 3.09 4.32l.129.143-.366.144-.369.146-.18-.196c-1.08-1.16-2.423-3.07-3.645-5.178l-.225-.388.194-.522.197-.522.181.372c.097.203.297.553.44.781ZM4.72 7.312c.96 1.641 2.172 3.363 3.16 4.488l.305.347-.359.134c-.31.116-.366.128-.4.09-.16-.168-.753-.905-1.063-1.318-.609-.816-1.696-2.466-2.137-3.244l-.1-.178.147-.39c.112-.294.16-.385.184-.357.019.022.138.213.263.428Zm-.572 1.413c.794 1.303 1.9 2.875 2.578 3.662.103.12.175.225.16.241a3.243 3.243 0 0 1-.348.147l-.318.125-.325-.413C5.162 11.562 4.1 10.012 3.65 9.22l-.081-.141.147-.381c.078-.213.153-.385.162-.385.01 0 .131.188.269.413ZM8.953 9.8c.478.378 1.216.86 1.634 1.062.21.1.379.191.379.2.003.01-.213.1-.472.2l-.478.182-.135-.154a22.232 22.232 0 0 1-1.475-1.82l-.262-.36.25.222c.134.122.387.331.56.469Zm-5.434.237a36.132 36.132 0 0 0 1.862 2.675c.15.194.275.363.275.379 0 .012-.15.08-.334.15l-.335.125-.112-.144c-.55-.697-1.844-2.59-1.844-2.7 0-.022.053-.181.119-.353.066-.17.131-.335.14-.366.013-.028.026-.053.032-.053.01 0 .097.131.197.287Zm-.613 1.329c.169.278.847 1.259 1.194 1.725.172.228.316.43.325.453.012.03-.544.268-.634.268-.044 0-.429-.525-.96-1.306l-.365-.537.146-.391c.082-.216.157-.39.17-.39a.93.93 0 0 1 .124.178Zm-.469 1.524c.094.138.307.444.475.679.17.237.307.44.307.453 0 .04-1.125.456-1.222.453-.163-.003-.34-.184-.34-.34 0-.05.074-.26.459-1.254.059-.16.121-.281.134-.265.012.012.097.137.187.274Z" fill="#fff"/><path d="M8.856 6.184a.376.376 0 0 0-.2.303c0 .072.031.138.097.216.085.094.116.11.238.11.29 0 .43-.316.237-.532a.357.357 0 0 0-.372-.097Zm.61-4.531c-.116.119-.116.178.015.435.153.306.206.53.228.975.02.403-.018.856-.103 1.271-.05.238-.034.322.078.407.085.065.266.05.338-.032.115-.121.228-.853.228-1.459 0-1.116-.416-1.962-.784-1.597Zm1.656.407c-.072.071-.09.118-.09.221 0 .163.04.238.155.297.291.15.6-.134.457-.419-.107-.2-.369-.253-.522-.1Zm.628 1.656c-.303.1-.547.33-.66.625-.162.434.057.946.498 1.165.115.056.196.072.396.072.31 0 .497-.087.713-.328a.846.846 0 0 0 .234-.684.907.907 0 0 0-.881-.866c-.122-.006-.256 0-.3.016Zm.431.565c.238.144.29.44.116.625-.184.194-.41.2-.594.016-.2-.203-.169-.469.075-.631a.353.353 0 0 1 .403-.01Zm1.675 1.907c-.1.04-.2.184-.2.287 0 .2.138.334.338.338.35 0 .444-.447.131-.61a.278.278 0 0 0-.269-.016Z" fill="#fff"/></svg>
